img/partners/google.svg

<svg width="119" height="40" viewBox="0 0 119 40" fill="none" xmlns="http://www.w3.org/2000/svg">
<path d="M29.3793 13.8319H15.5575V17.9074H25.3863C24.8949 23.6502 20.1033 26.1819 15.6189 26.1819C9.84452 26.1819 4.80725 21.6124 4.80725 15.2522C4.80725 9.01544 9.5988 4.19894 15.6189 4.19894C20.2876 4.19894 22.9905 7.16294 22.9905 7.16294L25.8163 4.19894C25.8163 4.19894 22.1305 0.12344 15.4347 0.12344C6.89588 0.0616899 0.322861 7.28644 0.322861 15.1287C0.322861 22.7857 6.5273 30.2574 15.6804 30.2574C23.7277 30.2574 29.625 24.7617 29.625 16.5489C29.625 14.8199 29.3793 13.8319 29.3793 13.8319Z" fill="#8C98A4"/>
<path fill-rule="evenodd" clip-rule="evenodd" d="M30.915 20.4392C30.915 15.2522 34.9694 10.8062 40.621 10.8062C45.2897 10.8062 50.3269 14.1407 50.3883 20.5627C50.3883 26.2437 46.0882 30.2574 40.7438 30.2574C34.8465 30.2574 30.915 25.7497 30.915 20.4392ZM46.0882 20.5627C46.0882 16.9812 43.4468 14.6964 40.6824 14.6964C37.5495 14.6964 35.1537 17.1664 35.2151 20.5009C35.2151 23.9589 37.6109 26.4289 40.6824 26.4289C43.5082 26.4289 46.0882 24.1442 46.0882 20.5627Z" fill="#8C98A4"/>
<path fill-rule="evenodd" clip-rule="evenodd" d="M52.047 20.4392C52.047 15.2522 56.1013 10.8062 61.7529 10.8062C66.4216 10.8062 71.4589 14.1407 71.5203 20.5627C71.5203 26.2437 67.2202 30.2574 61.8758 30.2574C55.9785 30.2574 52.047 25.7497 52.047 20.4392ZM67.2202 20.5627C67.2202 16.9812 64.5787 14.6964 61.8143 14.6964C58.6814 14.6964 56.2856 17.1664 56.3471 20.5009C56.3471 23.9589 58.7428 26.4289 61.8143 26.4289C64.6401 26.4289 67.2202 24.1442 67.2202 20.5627Z" fill="#8C98A4"/>
<path fill-rule="evenodd" clip-rule="evenodd" d="M73.1789 20.5627C73.1789 15.4374 77.2333 10.8679 82.4548 10.8679C84.7277 10.8679 86.4478 11.7324 87.5535 13.0909V11.4237H91.6079V28.8989C91.6079 35.7532 87.6764 39.0259 82.5163 39.0259C77.7861 39.0259 75.1447 36.1237 73.8546 33.3449L77.6019 31.8012C78.1547 33.0362 79.629 35.2592 82.5777 35.2592C85.6492 35.2592 87.6764 33.2214 87.6764 29.8869V27.9727C86.5092 29.2694 85.0963 30.3192 82.332 30.3192C77.909 30.3192 73.1789 26.3672 73.1789 20.5627ZM87.9835 20.6244C87.9835 16.9194 85.342 14.6964 82.8234 14.6964C80.1205 14.6964 77.479 16.8577 77.4176 20.6862C77.4176 24.2059 79.9976 26.4907 82.762 26.4907C85.4035 26.4907 87.9835 24.4529 87.9835 20.6244Z" fill="#8C98A4"/>
<path fill-rule="evenodd" clip-rule="evenodd" d="M100.761 20.5009C100.761 14.6964 104.877 10.8062 109.791 10.8062C113.6 10.8062 116.487 13.3997 117.777 16.3637L118.453 17.9692L105.491 23.4032C106.29 24.8852 107.518 26.3672 110.221 26.3672C112.617 26.3672 114.091 25.0704 114.951 23.7119L118.33 25.9967C116.856 27.9727 114.276 30.2574 110.221 30.2574C105.368 30.2574 100.761 26.6142 100.761 20.5009ZM113.538 16.6724C112.924 15.4992 111.696 14.5729 109.914 14.5729C107.15 14.5729 104.447 17.4752 104.938 20.3157L113.538 16.6724Z" fill="#8C98A4"/>
<path d="M94.618 29.7017H98.8567V1.04968H94.618V29.7017Z" fill="#8C98A4"/>
</svg>

<svg width="119" height="40" fill="none" xmlns="http://www.w3.org/2000/svg"><path d="M29.38 13.832H15.557v4.075h9.828c-.491 5.743-5.283 8.275-9.767 8.275-5.774 0-10.812-4.57-10.812-10.93C4.807 9.015 9.6 4.2 15.62 4.2c4.669 0 7.372 2.964 7.372 2.964l2.825-2.964S22.131.123 15.435.123C6.895.062.323 7.286.323 15.13c0 7.657 6.204 15.128 15.357 15.128 8.048 0 13.945-5.495 13.945-13.708 0-1.73-.246-2.717-.246-2.717z" fill="#8C98A4"/><path fill-rule="evenodd" clip-rule="evenodd" d="M30.915 20.44c0-5.188 4.054-9.634 9.706-9.634 4.669 0 9.706 3.335 9.767 9.757 0 5.68-4.3 9.694-9.644 9.694-5.898 0-9.829-4.507-9.829-9.818zm15.173.123c0-3.582-2.641-5.867-5.406-5.867-3.133 0-5.528 2.47-5.467 5.805 0 3.458 2.396 5.928 5.467 5.928 2.826 0 5.406-2.285 5.406-5.866zM52.047 20.44c0-5.188 4.054-9.634 9.706-9.634 4.669 0 9.706 3.335 9.767 9.757 0 5.68-4.3 9.694-9.644 9.694-5.898 0-9.829-4.507-9.829-9.818zm15.173.123c0-3.582-2.641-5.867-5.406-5.867-3.133 0-5.528 2.47-5.467 5.805 0 3.458 2.396 5.928 5.467 5.928 2.826 0 5.406-2.285 5.406-5.866zM73.179 20.563c0-5.126 4.054-9.695 9.276-9.695 2.273 0 3.993.864 5.099 2.223v-1.667h4.054v17.475c0 6.854-3.932 10.127-9.092 10.127-4.73 0-7.371-2.902-8.661-5.681l3.747-1.544c.553 1.235 2.027 3.458 4.976 3.458 3.071 0 5.098-2.038 5.098-5.372v-1.914c-1.167 1.296-2.58 2.346-5.344 2.346-4.423 0-9.153-3.952-9.153-9.756zm14.805.061c0-3.705-2.642-5.928-5.16-5.928-2.703 0-5.345 2.162-5.406 5.99 0 3.52 2.58 5.805 5.344 5.805 2.641 0 5.222-2.038 5.222-5.867zM100.761 20.5c0-5.804 4.116-9.694 9.03-9.694 3.809 0 6.696 2.594 7.986 5.558l.676 1.605-12.962 5.434c.799 1.482 2.027 2.964 4.73 2.964 2.396 0 3.87-1.297 4.73-2.655l3.379 2.285c-1.474 1.976-4.054 4.26-8.109 4.26-4.853 0-9.46-3.643-9.46-9.756zm12.777-3.828c-.614-1.173-1.842-2.1-3.624-2.1-2.764 0-5.467 2.903-4.976 5.744l8.6-3.644z" fill="#8C98A4"/><path d="M94.618 29.702h4.239V1.05h-4.239v28.652z" fill="#8C98A4"/></svg>
